!!!COM: Matthew Locke
!!!OTL: Doppelkanon ueber ut, re, mi... mit einer freien Mittelstimme
!!!XEN: Double Canon on Ut, Re, Mi ... with a free inner voice.
!!!ONB: Canon 4 in 2
!!!YOR: From "Corona; Werkreihe fuer Kammerorchester" Nr. 106
!!!YOR: Edited by Adolf Hoffman.
!!!YOR: From "Ars Canonica," Series VI
!!!YOR: Moeseler Verlag Wolfenbettel, 1969.
!! Cantus Firmus is marked "CF"
**kern	**kern	**kern	**kern	**kern	**kern
*conseq	*guida	*freeV	*CF	*conseq	*guida
*k[b-]	*k[b-]	*k[b-]	*k[b-]	*k[b-]	*k[b-]
*M2/2	*M2/2	*M2/2	*M2/2	*M2/2	*M2/2
=1	=1	=1	=1	=1	=1
1r	1r	2r	1r	1r	2.f
.	.	[2d	.	.	.
.	.	.	.	.	4g
=2	=2	=2	=2	=2	=2
1r	1r	4d]	1r	2.f	2a
.	.	4c	.	.	.
.	.	2B-	.	.	2dd
.	.	.	.	4g	.
=3	=3	=3	=3	=3	=3
1r	1r	1f	1r	2a	2.cc
.	.	.	.	2dd	.
.	.	.	.	.	4b-
=4	=4	=4	=4	=4	=4
1r	2.A	2r	1c	2.cc	2a
.	.	2e	.	.	[2a
.	4G	.	.	4b-	.
=5	=5	=5	=5	=5	=5
1r	2F	2f	1cc	2a	4a]
.	.	.	.	.	4b-
.	2F	.	.	[2a	4cc
.	.	.	.	.	4dd
=6	=6	=6	=6	=6	=6
2.AA	1c	2r	1e	4a]	1ee
.	.	.	.	4b-	.
.	.	[2A	.	4cc	.
4GG	.	.	.	4dd	.
=7	=7	=7	=7	=7	=7
2FF	1r	4A]	1f	1a	1r
.	.	4G	.	.	.
2FF	.	[2F	.	.	.
=8	=8	=8	=8	=8	=8
1C	4r	2F]	1g	1r	2.c
.	2c	.	.	.	.
.	.	2E	.	.	.
.	4B-	.	.	.	4d
=9	=9	=9	=9	=9	=9
1r	4.A	4r	1a	2.c	4e
.	.	2c	.	.	4f
.	8G	.	.	.	.
.	[2F	.	.	.	[2c
.	.	4B-	.	4d	.
=10	=10	=10	=10	=10	=10
4r	2F]	2A	1r	4e	2c]
2C	.	.	.	4f	.
.	2E	2G	.	[2c	2cc
4BB-	.	.	.	.	.
=11	=11	=11	=11	=11	=11
4.AA	2F	1E	1a	2c]	1cc
8GG	.	.	.	.	.
[2FF	2r	.	.	2cc	.
=12	=12	=12	=12	=12	=12
2FF]	2r	4r	1g	1cc	1r
.	.	2c	.	.	.
2EE	[2c	.	.	.	.
.	.	4B-	.	.	.
=13	=13	=13	=13	=13	=13
2FF	2c]	2A	1f	1r	2r
2r	2Bn	2d	.	.	[2g
=14	=14	=14	=14	=14	=14
2r	1c	2.c	1e	2r	2g]
[2C	.	.	.	[2g	2g
.	.	4c	.	.	.
=15	=15	=15	=15	=15	=15
2C]	2r	4d	1d	2g]	2g
.	.	4e	.	.	.
2BBn	[2F	4f	.	2g	2r
.	.	4d	.	.	.
=16	=16	=16	=16	=16	=16
1C	2F]	4e	[1c	2g	2.cc
.	.	4f	.	.	.
.	2d	2g	.	2r	.
.	.	.	.	.	4b-
=17	=17	=17	=17	=17	=17
1FF;	1F;	1f;	1c;]	1cc;	1a;
==	==	==	==	==	==
*-	*-	*-	*-	*-	*-
!!!CDT: 1633///-1677//
!!!OCY: ?England
!!!ODT: ?
!!!AFR: cantus firmus double canon
!!!AST: polyphony
!!!AMT: simple duple
!!!AIN: vox
!!!YEP: David Huron and Denis Collins
!!!YEN: Canada
!!!EEV: 1.0
!!!RDT: 1995 April 29
!!!YED: 1995 August 31
